public/img/company/account/flow_plus_bottom.svg

<svg fill="none" height="71" viewBox="0 0 49 71" width="49" xmlns="http://www.w3.org/2000/svg" xmlns:xlink="http://www.w3.org/1999/xlink"><filter id="a" color-interpolation-filters="sRGB" filterUnits="userSpaceOnUse" height="49" width="49" x="0" y="22"><feFlood flood-opacity="0" result="BackgroundImageFix"/><feColorMatrix in="SourceAlpha" type="matrix" values="0 0 0 0 0 0 0 0 0 0 0 0 0 0 0 0 0 0 127 0"/><feOffset dx="1"/><feGaussianBlur stdDeviation=".5"/><feColorMatrix type="matrix" values="0 0 0 0 0.168627 0 0 0 0 0.176471 0 0 0 0 0.313726 0 0 0 0.16 0"/><feBlend in2="BackgroundImageFix" mode="normal" result="effect1_dropShadow"/><feColorMatrix in="SourceAlpha" type="matrix" values="0 0 0 0 0 0 0 0 0 0 0 0 0 0 0 0 0 0 127 0"/><feOffset dx="-1" dy="1"/><feGaussianBlur stdDeviation=".5"/><feColorMatrix type="matrix" values="0 0 0 0 0.168627 0 0 0 0 0.176471 0 0 0 0 0.313726 0 0 0 0.16 0"/><feBlend in2="effect1_dropShadow" mode="normal" result="effect2_dropShadow"/><feColorMatrix in="SourceAlpha" type="matrix" values="0 0 0 0 0 0 0 0 0 0 0 0 0 0 0 0 0 0 127 0"/><feOffset dy="1"/><feGaussianBlur stdDeviation="2"/><feColorMatrix type="matrix" values="0 0 0 0 0.168627 0 0 0 0 0.176471 0 0 0 0 0.313726 0 0 0 0.18 0"/><feBlend in2="effect2_dropShadow" mode="normal" result="effect3_dropShadow"/><feBlend in="SourceGraphic" in2="effect3_dropShadow" mode="normal" result="shape"/></filter><path d="m24.5 25v-25" stroke="#cbc9c9"/><g filter="url(#a)"><rect fill="#fff" height="41" rx="20.5" width="41" x="4" y="25"/></g><path clip-rule="evenodd" d="m24.5159 35c1.1437 0 2.0968.9531 2.0968 2.0968v6.3223h6.2905c1.1755 0 2.0968.9213 2.0968 2.0968 0 1.1437-.9213 2.0968-2.0968 2.0968h-6.2905v6.2905c0 1.1755-.9531 2.0968-2.0968 2.0968-1.1755 0-2.0968-.9213-2.0968-2.0968v-6.2905h-6.3223c-1.1437 0-2.0968-.9531-2.0968-2.0968 0-1.1755.9531-2.0968 2.0968-2.0968h6.3223v-6.3223c0-1.1437.9213-2.0968 2.0968-2.0968z" fill="#63c467" fill-rule="evenodd"/></svg>

<svg width="49" height="71" viewBox="0 0 49 71" fill="none" xmlns="http://www.w3.org/2000/svg">
<line x1="24.5" y1="25" x2="24.5" y2="2.09815e-08" stroke="#CBC9C9"/>
<g filter="url(#filter0_ddd)">
<rect x="4" y="25" width="41" height="41" rx="20.5" fill="white"/>
</g>
<path fill-rule="evenodd" clip-rule="evenodd" d="M24.5159 35C25.6596 35 26.6127 35.9531 26.6127 37.0968V43.4191H32.9032C34.0787 43.4191 35 44.3404 35 45.5159C35 46.6596 34.0787 47.6127 32.9032 47.6127H26.6127V53.9032C26.6127 55.0787 25.6596 56 24.5159 56C23.3404 56 22.4191 55.0787 22.4191 53.9032V47.6127H16.0968C14.9531 47.6127 14 46.6596 14 45.5159C14 44.3404 14.9531 43.4191 16.0968 43.4191H22.4191V37.0968C22.4191 35.9531 23.3404 35 24.5159 35Z" fill="#63C467"/>
<defs>
<filter id="filter0_ddd" x="0" y="22" width="49" height="49" filterUnits="userSpaceOnUse" color-interpolation-filters="sRGB">
<feFlood flood-opacity="0" result="BackgroundImageFix"/>
<feColorMatrix in="SourceAlpha" type="matrix" values="0 0 0 0 0 0 0 0 0 0 0 0 0 0 0 0 0 0 127 0"/>
<feOffset dx="1"/>
<feGaussianBlur stdDeviation="0.5"/>
<feColorMatrix type="matrix" values="0 0 0 0 0.168627 0 0 0 0 0.176471 0 0 0 0 0.313726 0 0 0 0.16 0"/>
<feBlend mode="normal" in2="BackgroundImageFix" result="effect1_dropShadow"/>
<feColorMatrix in="SourceAlpha" type="matrix" values="0 0 0 0 0 0 0 0 0 0 0 0 0 0 0 0 0 0 127 0"/>
<feOffset dx="-1" dy="1"/>
<feGaussianBlur stdDeviation="0.5"/>
<feColorMatrix type="matrix" values="0 0 0 0 0.168627 0 0 0 0 0.176471 0 0 0 0 0.313726 0 0 0 0.16 0"/>
<feBlend mode="normal" in2="effect1_dropShadow" result="effect2_dropShadow"/>
<feColorMatrix in="SourceAlpha" type="matrix" values="0 0 0 0 0 0 0 0 0 0 0 0 0 0 0 0 0 0 127 0"/>
<feOffset dy="1"/>
<feGaussianBlur stdDeviation="2"/>
<feColorMatrix type="matrix" values="0 0 0 0 0.168627 0 0 0 0 0.176471 0 0 0 0 0.313726 0 0 0 0.18 0"/>
<feBlend mode="normal" in2="effect2_dropShadow" result="effect3_dropShadow"/>
<feBlend mode="normal" in="SourceGraphic" in2="effect3_dropShadow" result="shape"/>
</filter>
</defs>
</svg>
